2024/special/img/readme_dl_button.svg

<svg width="216" height="36" viewBox="0 0 216 36" fill="none" xmlns="http://www.w3.org/2000/svg">
<rect width="216" height="36" rx="8" fill="#FF0084"/>
<path d="M13.032 22V15.4H14.424V22H13.032ZM13.728 14.164C13.212 14.164 12.876 13.84 12.876 13.336C12.876 12.844 13.212 12.52 13.728 12.52C14.232 12.52 14.592 12.844 14.592 13.336C14.592 13.84 14.232 14.164 13.728 14.164ZM18.757 24.964C17.173 24.964 16.021 24.376 16.021 23.236C16.021 22.672 16.369 22.156 16.981 21.796V21.736C16.633 21.52 16.381 21.172 16.381 20.632C16.381 20.116 16.741 19.672 17.113 19.408V19.36C16.669 19.024 16.237 18.388 16.237 17.608C16.237 16.108 17.437 15.232 18.793 15.232C19.177 15.232 19.513 15.304 19.765 15.4H22.093V16.444H20.845C21.097 16.708 21.277 17.14 21.277 17.644C21.277 19.096 20.185 19.912 18.793 19.912C18.505 19.912 18.169 19.852 17.869 19.72C17.665 19.9 17.509 20.092 17.509 20.416C17.509 20.8 17.785 21.052 18.613 21.052H19.837C21.397 21.052 22.213 21.532 22.213 22.66C22.213 23.932 20.869 24.964 18.757 24.964ZM18.793 19.024C19.477 19.024 20.041 18.484 20.041 17.608C20.041 16.72 19.489 16.216 18.793 16.216C18.109 16.216 17.557 16.72 17.557 17.608C17.557 18.484 18.121 19.024 18.793 19.024ZM18.961 24.052C20.113 24.052 20.869 23.488 20.869 22.888C20.869 22.336 20.437 22.156 19.633 22.156H18.637C18.325 22.156 18.037 22.132 17.761 22.06C17.365 22.36 17.197 22.696 17.197 23.032C17.197 23.668 17.869 24.052 18.961 24.052ZM23.4265 22V15.4H24.5545L24.6745 16.324H24.7105C25.3105 15.724 25.9945 15.232 26.8945 15.232C28.2985 15.232 28.9225 16.18 28.9225 17.848V22H27.5305V18.028C27.5305 16.876 27.1945 16.432 26.4265 16.432C25.8145 16.432 25.3945 16.744 24.8185 17.32V22H23.4265ZM30.9148 22V15.4H32.3068V22H30.9148ZM31.6108 14.164C31.0948 14.164 30.7588 13.84 30.7588 13.336C30.7588 12.844 31.0948 12.52 31.6108 12.52C32.1148 12.52 32.4748 12.844 32.4748 13.336C32.4748 13.84 32.1148 14.164 31.6108 14.164ZM36.5918 22.168C35.1158 22.168 34.5878 21.232 34.5878 19.852V16.504H33.6278V15.472L34.6598 15.4L34.8158 13.576H35.9678V15.4H37.6958V16.504H35.9678V19.864C35.9678 20.644 36.2558 21.064 36.9398 21.064C37.1678 21.064 37.4438 20.98 37.6478 20.896L37.8998 21.916C37.5278 22.036 37.0838 22.168 36.5918 22.168ZM39.1297 22V15.4H40.5217V22H39.1297ZM39.8257 14.164C39.3097 14.164 38.9737 13.84 38.9737 13.336C38.9737 12.844 39.3097 12.52 39.8257 12.52C40.3297 12.52 40.6897 12.844 40.6897 13.336C40.6897 13.84 40.3297 14.164 39.8257 14.164ZM45.2387 22.168C43.5947 22.168 42.1307 20.896 42.1307 18.712C42.1307 16.504 43.5947 15.232 45.2387 15.232C46.8707 15.232 48.3467 16.504 48.3467 18.712C48.3467 20.896 46.8707 22.168 45.2387 22.168ZM45.2387 21.028C46.2707 21.028 46.9307 20.104 46.9307 18.712C46.9307 17.308 46.2707 16.384 45.2387 16.384C44.1947 16.384 43.5587 17.308 43.5587 18.712C43.5587 20.104 44.1947 21.028 45.2387 21.028ZM49.9695 22V15.4H51.0975L51.2175 16.324H51.2535C51.8535 15.724 52.5375 15.232 53.4375 15.232C54.8415 15.232 55.4655 16.18 55.4655 17.848V22H54.0735V18.028C54.0735 16.876 53.7375 16.432 52.9695 16.432C52.3575 16.432 51.9375 16.744 51.3615 17.32V22H49.9695ZM56.5818 23.764V22.912H63.0018V23.764H56.5818ZM65.5761 22.168C64.5681 22.168 64.1961 21.52 64.1961 20.452V12.448H65.5881V20.524C65.5881 20.896 65.7441 21.028 65.9121 21.028C65.9721 21.028 66.0201 21.028 66.1401 21.004L66.3201 22.048C66.1401 22.108 65.9241 22.168 65.5761 22.168ZM70.4223 22.168C68.7783 22.168 67.3143 20.896 67.3143 18.712C67.3143 16.504 68.7783 15.232 70.4223 15.232C72.0543 15.232 73.5303 16.504 73.5303 18.712C73.5303 20.896 72.0543 22.168 70.4223 22.168ZM70.4223 21.028C71.4543 21.028 72.1143 20.104 72.1143 18.712C72.1143 17.308 71.4543 16.384 70.4223 16.384C69.3783 16.384 68.7423 17.308 68.7423 18.712C68.7423 20.104 69.3783 21.028 70.4223 21.028ZM77.4211 24.964C75.8371 24.964 74.6851 24.376 74.6851 23.236C74.6851 22.672 75.0331 22.156 75.6451 21.796V21.736C75.2971 21.52 75.0451 21.172 75.0451 20.632C75.0451 20.116 75.4051 19.672 75.7771 19.408V19.36C75.3331 19.024 74.9011 18.388 74.9011 17.608C74.9011 16.108 76.1011 15.232 77.4571 15.232C77.8411 15.232 78.1771 15.304 78.4291 15.4H80.7571V16.444H79.5091C79.7611 16.708 79.9411 17.14 79.9411 17.644C79.9411 19.096 78.8491 19.912 77.4571 19.912C77.1691 19.912 76.8331 19.852 76.5331 19.72C76.3291 19.9 76.1731 20.092 76.1731 20.416C76.1731 20.8 76.4491 21.052 77.2771 21.052H78.5011C80.0611 21.052 80.8771 21.532 80.8771 22.66C80.8771 23.932 79.5331 24.964 77.4211 24.964ZM77.4571 19.024C78.1411 19.024 78.7051 18.484 78.7051 17.608C78.7051 16.72 78.1531 16.216 77.4571 16.216C76.7731 16.216 76.2211 16.72 76.2211 17.608C76.2211 18.484 76.7851 19.024 77.4571 19.024ZM77.6251 24.052C78.7771 24.052 79.5331 23.488 79.5331 22.888C79.5331 22.336 79.1011 22.156 78.2971 22.156H77.3011C76.9891 22.156 76.7011 22.132 76.4251 22.06C76.0291 22.36 75.8611 22.696 75.8611 23.032C75.8611 23.668 76.5331 24.052 77.6251 24.052ZM84.4965 22.168C82.8525 22.168 81.3885 20.896 81.3885 18.712C81.3885 16.504 82.8525 15.232 84.4965 15.232C86.1285 15.232 87.6045 16.504 87.6045 18.712C87.6045 20.896 86.1285 22.168 84.4965 22.168ZM84.4965 21.028C85.5285 21.028 86.1885 20.104 86.1885 18.712C86.1885 17.308 85.5285 16.384 84.4965 16.384C83.4525 16.384 82.8165 17.308 82.8165 18.712C82.8165 20.104 83.4525 21.028 84.4965 21.028ZM88.3513 23.764V22.912H94.7713V23.764H88.3513ZM98.2336 24.964C96.6496 24.964 95.4976 24.376 95.4976 23.236C95.4976 22.672 95.8456 22.156 96.4576 21.796V21.736C96.1096 21.52 95.8576 21.172 95.8576 20.632C95.8576 20.116 96.2176 19.672 96.5896 19.408V19.36C96.1456 19.024 95.7136 18.388 95.7136 17.608C95.7136 16.108 96.9136 15.232 98.2696 15.232C98.6536 15.232 98.9896 15.304 99.2416 15.4H101.57V16.444H100.322C100.574 16.708 100.754 17.14 100.754 17.644C100.754 19.096 99.6616 19.912 98.2696 19.912C97.9816 19.912 97.6456 19.852 97.3456 19.72C97.1416 19.9 96.9856 20.092 96.9856 20.416C96.9856 20.8 97.2616 21.052 98.0896 21.052H99.3136C100.874 21.052 101.69 21.532 101.69 22.66C101.69 23.932 100.346 24.964 98.2336 24.964ZM98.2696 19.024C98.9536 19.024 99.5176 18.484 99.5176 17.608C99.5176 16.72 98.9656 16.216 98.2696 16.216C97.5856 16.216 97.0336 16.72 97.0336 17.608C97.0336 18.484 97.5976 19.024 98.2696 19.024ZM98.4376 24.052C99.5896 24.052 100.346 23.488 100.346 22.888C100.346 22.336 99.9136 22.156 99.1096 22.156H98.1136C97.8016 22.156 97.5136 22.132 97.2376 22.06C96.8416 22.36 96.6736 22.696 96.6736 23.032C96.6736 23.668 97.3456 24.052 98.4376 24.052ZM104.847 22.168C103.443 22.168 102.819 21.232 102.819 19.552V15.4H104.199V19.384C104.199 20.524 104.535 20.968 105.315 20.968C105.927 20.968 106.347 20.68 106.899 19.984V15.4H108.279V22H107.139L107.031 21.004H106.995C106.395 21.7 105.759 22.168 104.847 22.168ZM110.345 22V15.4H111.737V22H110.345ZM111.041 14.164C110.525 14.164 110.189 13.84 110.189 13.336C110.189 12.844 110.525 12.52 111.041 12.52C111.545 12.52 111.905 12.844 111.905 13.336C111.905 13.84 111.545 14.164 111.041 14.164ZM116.082 22.168C114.426 22.168 113.37 20.896 113.37 18.712C113.37 16.564 114.726 15.232 116.19 15.232C116.946 15.232 117.438 15.52 117.966 15.976L117.906 14.884V12.448H119.298V22H118.158L118.05 21.268H118.014C117.51 21.772 116.826 22.168 116.082 22.168ZM116.418 21.016C116.958 21.016 117.438 20.764 117.906 20.212V16.996C117.426 16.552 116.958 16.384 116.466 16.384C115.542 16.384 114.798 17.272 114.798 18.688C114.798 20.188 115.386 21.016 116.418 21.016ZM124.12 22.168C122.32 22.168 120.904 20.884 120.904 18.712C120.904 16.564 122.38 15.232 123.916 15.232C125.656 15.232 126.604 16.492 126.604 18.364C126.604 18.64 126.58 18.904 126.544 19.072H122.26C122.368 20.332 123.16 21.076 124.3 21.076C124.888 21.076 125.38 20.896 125.872 20.584L126.352 21.472C125.74 21.88 124.984 22.168 124.12 22.168ZM122.236 18.112H125.404C125.404 16.972 124.9 16.324 123.94 16.324C123.112 16.324 122.38 16.96 122.236 18.112ZM129.537 22.168C128.529 22.168 128.157 21.52 128.157 20.452V12.448H129.549V20.524C129.549 20.896 129.705 21.028 129.873 21.028C129.933 21.028 129.981 21.028 130.101 21.004L130.281 22.048C130.101 22.108 129.885 22.168 129.537 22.168ZM131.731 22V15.4H133.123V22H131.731ZM132.427 14.164C131.911 14.164 131.575 13.84 131.575 13.336C131.575 12.844 131.911 12.52 132.427 12.52C132.931 12.52 133.291 12.844 133.291 13.336C133.291 13.84 132.931 14.164 132.427 14.164ZM135.188 22V15.4H136.316L136.436 16.324H136.472C137.072 15.724 137.756 15.232 138.656 15.232C140.06 15.232 140.684 16.18 140.684 17.848V22H139.292V18.028C139.292 16.876 138.956 16.432 138.188 16.432C137.576 16.432 137.156 16.744 136.58 17.32V22H135.188ZM145.437 22.168C143.637 22.168 142.221 20.884 142.221 18.712C142.221 16.564 143.697 15.232 145.233 15.232C146.973 15.232 147.921 16.492 147.921 18.364C147.921 18.64 147.897 18.904 147.861 19.072H143.577C143.685 20.332 144.477 21.076 145.617 21.076C146.205 21.076 146.697 20.896 147.189 20.584L147.669 21.472C147.057 21.88 146.301 22.168 145.437 22.168ZM143.553 18.112H146.721C146.721 16.972 146.217 16.324 145.257 16.324C144.429 16.324 143.697 16.96 143.553 18.112ZM150.229 22.168C149.701 22.168 149.305 21.76 149.305 21.196C149.305 20.62 149.701 20.224 150.229 20.224C150.745 20.224 151.153 20.62 151.153 21.196C151.153 21.76 150.745 22.168 150.229 22.168ZM153.048 24.676V15.4H154.176L154.296 16.132H154.332C154.908 15.64 155.616 15.232 156.36 15.232C158.028 15.232 158.976 16.564 158.976 18.604C158.976 20.86 157.62 22.168 156.132 22.168C155.544 22.168 154.944 21.904 154.392 21.424L154.44 22.54V24.676H153.048ZM155.868 21.016C156.816 21.016 157.548 20.164 157.548 18.616C157.548 17.236 157.092 16.384 155.988 16.384C155.484 16.384 154.992 16.66 154.44 17.188V20.416C154.956 20.86 155.46 21.016 155.868 21.016ZM162.886 22.168C161.23 22.168 160.174 20.896 160.174 18.712C160.174 16.564 161.53 15.232 162.994 15.232C163.75 15.232 164.242 15.52 164.77 15.976L164.71 14.884V12.448H166.102V22H164.962L164.854 21.268H164.818C164.314 21.772 163.63 22.168 162.886 22.168ZM163.222 21.016C163.762 21.016 164.242 20.764 164.71 20.212V16.996C164.23 16.552 163.762 16.384 163.27 16.384C162.346 16.384 161.602 17.272 161.602 18.688C161.602 20.188 162.19 21.016 163.222 21.016ZM168.393 22V14.572C168.393 13.228 169.017 12.28 170.481 12.28C170.937 12.28 171.357 12.376 171.657 12.496L171.381 13.552C171.141 13.432 170.889 13.384 170.649 13.384C170.073 13.384 169.773 13.768 169.773 14.572V22H168.393ZM167.493 16.504V15.472L168.465 15.4H171.117V16.504H167.493Z" fill="white"/>
<path d="M201.5 20.5V23.8333C201.5 24.2754 201.324 24.6993 201.012 25.0118C200.699 25.3244 200.275 25.5 199.833 25.5H188.167C187.725 25.5 187.301 25.3244 186.988 25.0118C186.676 24.6993 186.5 24.2754 186.5 23.8333V20.5" stroke="white" stroke-linecap="round" stroke-linejoin="round"/>
<path d="M189.833 16.333L194 20.4997L198.167 16.333" stroke="white" stroke-linecap="round" stroke-linejoin="round"/>
<path d="M194 20.5V10.5" stroke="white" stroke-linecap="round" stroke-linejoin="round"/>
</svg>

<svg xmlns="http://www.w3.org/2000/svg" width="216" height="36" fill="none" viewBox="0 0 216 36"><rect width="216" height="36" fill="#ff0084" rx="8"/><path fill="#fff" d="M13.03 22v-6.6h1.4V22zm.7-7.84c-.52 0-.85-.32-.85-.82s.33-.82.85-.82c.5 0 .86.32.86.82s-.36.82-.86.82m5.03 10.8c-1.59 0-2.74-.58-2.74-1.72 0-.57.35-1.08.96-1.44v-.06c-.35-.22-.6-.57-.6-1.1 0-.52.36-.97.73-1.23v-.05a2.3 2.3 0 0 1-.87-1.75c0-1.5 1.2-2.38 2.55-2.38q.59.01.98.17h2.32v1.04h-1.25c.26.27.44.7.44 1.2 0 1.46-1.1 2.27-2.49 2.27q-.45 0-.92-.19c-.2.18-.36.37-.36.7 0 .38.27.63 1.1.63h1.23c1.56 0 2.37.48 2.37 1.61 0 1.27-1.34 2.3-3.45 2.3m.03-5.94c.69 0 1.25-.54 1.25-1.41 0-.89-.55-1.4-1.25-1.4-.68 0-1.23.51-1.23 1.4 0 .87.56 1.41 1.23 1.41m.17 5.03c1.15 0 1.9-.56 1.9-1.16 0-.55-.42-.73-1.23-.73h-1q-.46 0-.87-.1-.58.46-.56.97c0 .64.67 1.02 1.76 1.02M23.43 22v-6.6h1.12l.12.92h.04c.6-.6 1.28-1.09 2.18-1.09 1.4 0 2.03.95 2.03 2.62V22h-1.39v-3.97c0-1.15-.34-1.6-1.1-1.6-.62 0-1.04.31-1.61.89V22zm7.48 0v-6.6h1.4V22zm.7-7.84c-.52 0-.85-.32-.85-.82s.33-.82.85-.82c.5 0 .86.32.86.82s-.36.82-.86.82m4.98 8c-1.47 0-2-.93-2-2.3V16.5h-.96v-1.03l1.03-.07.16-1.82h1.15v1.82h1.73v1.1h-1.73v3.36c0 .78.29 1.2.97 1.2.23 0 .5-.08.7-.16l.26 1.02c-.37.12-.82.25-1.3.25m2.54-.16v-6.6h1.4V22zm.7-7.84c-.52 0-.86-.32-.86-.82s.34-.82.86-.82c.5 0 .86.32.86.82s-.36.82-.86.82m5.4 8c-1.64 0-3.1-1.26-3.1-3.45s1.46-3.48 3.1-3.48 3.12 1.27 3.12 3.48c0 2.19-1.48 3.46-3.11 3.46m0-1.13c1.04 0 1.7-.93 1.7-2.32 0-1.4-.66-2.33-1.7-2.33s-1.67.93-1.67 2.33.63 2.32 1.68 2.32m4.74.97v-6.6h1.13l.12.92h.03c.6-.6 1.29-1.09 2.19-1.09 1.4 0 2.03.95 2.03 2.62V22h-1.4v-3.97c0-1.15-.33-1.6-1.1-1.6-.61 0-1.03.31-1.6.89V22zm6.61 1.76v-.85H63v.85zm9-1.6c-1.01 0-1.38-.64-1.38-1.7v-8.01h1.39v8.07c0 .38.15.5.32.5l.23-.02.18 1.05q-.25.1-.74.12m4.84 0c-1.64 0-3.1-1.26-3.1-3.45s1.46-3.48 3.1-3.48c1.63 0 3.11 1.27 3.11 3.48 0 2.19-1.48 3.46-3.1 3.46m0-1.13c1.03 0 1.7-.93 1.7-2.32 0-1.4-.67-2.33-1.7-2.33-1.04 0-1.68.93-1.68 2.33s.64 2.32 1.68 2.32m7 3.93c-1.58 0-2.73-.58-2.73-1.72 0-.57.34-1.08.96-1.44v-.06c-.35-.22-.6-.57-.6-1.1 0-.52.36-.97.73-1.23v-.05a2.3 2.3 0 0 1-.88-1.75c0-1.5 1.2-2.38 2.56-2.38q.58.01.97.17h2.33v1.04h-1.3c.25.27.43.7.43 1.2 0 1.46-1.1 2.27-2.48 2.27q-.47 0-.93-.19c-.2.18-.36.37-.36.7 0 .38.28.63 1.1.63h1.23c1.56 0 2.38.48 2.38 1.61 0 1.27-1.35 2.3-3.46 2.3m.04-5.94c.68 0 1.25-.54 1.25-1.41 0-.89-.56-1.4-1.25-1.4s-1.24.51-1.24 1.4c0 .87.57 1.41 1.24 1.41m.17 5.03c1.15 0 1.9-.56 1.9-1.16 0-.55-.43-.73-1.23-.73h-1q-.47 0-.87-.1-.58.46-.57.97c0 .64.67 1.02 1.77 1.02m6.87-1.88c-1.65 0-3.11-1.27-3.11-3.46 0-2.2 1.46-3.48 3.1-3.48s3.11 1.27 3.11 3.48c0 2.19-1.47 3.46-3.1 3.46m0-1.14c1.03 0 1.69-.93 1.69-2.32 0-1.4-.66-2.33-1.7-2.33s-1.67.93-1.67 2.33.63 2.32 1.68 2.32m3.85 2.73v-.85h6.42v.85zm9.88 1.2c-1.58 0-2.73-.58-2.73-1.72 0-.57.35-1.08.96-1.44v-.06c-.35-.22-.6-.57-.6-1.1 0-.52.36-.97.73-1.23v-.05a2.3 2.3 0 0 1-.88-1.75c0-1.5 1.2-2.38 2.56-2.38q.58.01.97.17h2.33v1.04h-1.25c.25.27.43.7.43 1.2 0 1.46-1.09 2.27-2.48 2.27q-.45 0-.92-.19c-.2.18-.36.37-.36.7 0 .38.27.63 1.1.63h1.22c1.56 0 2.38.48 2.38 1.61 0 1.27-1.34 2.3-3.46 2.3m.04-5.94c.68 0 1.25-.54 1.25-1.41 0-.89-.55-1.4-1.25-1.4-.68 0-1.24.51-1.24 1.4 0 .87.57 1.41 1.24 1.41m.17 5.03c1.15 0 1.9-.56 1.9-1.16 0-.55-.43-.73-1.23-.73h-1q-.46 0-.87-.1-.58.46-.57.97c0 .64.68 1.02 1.77 1.02m6.4-1.88c-1.4 0-2.02-.94-2.02-2.62V15.4h1.38v3.98c0 1.14.33 1.59 1.11 1.59.62 0 1.04-.29 1.59-.99V15.4h1.38V22h-1.14l-.1-1h-.05c-.6.7-1.23 1.17-2.14 1.17m5.5-.17v-6.6h1.4V22zm.7-7.84c-.52 0-.85-.32-.85-.82s.34-.82.85-.82c.5 0 .86.32.86.82s-.36.82-.86.82m5.04 8c-1.65 0-2.71-1.26-2.71-3.45 0-2.15 1.36-3.48 2.82-3.48.76 0 1.25.29 1.78.75l-.06-1.1v-2.43h1.39V22h-1.14l-.11-.73h-.04c-.5.5-1.18.9-1.93.9m.34-1.14q.8 0 1.49-.8V17a2 2 0 0 0-1.44-.62c-.93 0-1.67.9-1.67 2.3 0 1.5.59 2.34 1.62 2.34m7.7 1.15c-1.8 0-3.22-1.29-3.22-3.46 0-2.15 1.48-3.48 3.02-3.48 1.74 0 2.68 1.26 2.68 3.13q0 .44-.06.71h-4.28c.1 1.26.9 2 2.04 2 .59 0 1.08-.17 1.57-.49l.48.9a4 4 0 0 1-2.23.69m-1.88-4.06h3.16c0-1.14-.5-1.79-1.46-1.79-.83 0-1.56.64-1.7 1.8m7.3 4.06c-1.01 0-1.38-.65-1.38-1.72v-8h1.39v8.07c0 .38.16.5.32.5l.23-.02.18 1.05c-.18.06-.4.12-.74.12m2.2-.17v-6.6h1.38V22zm.69-7.84c-.52 0-.86-.32-.86-.82s.34-.82.86-.82c.5 0 .86.32.86.82s-.36.82-.86.82m2.76 7.84v-6.6h1.13l.12.92h.03c.6-.6 1.29-1.09 2.19-1.09 1.4 0 2.02.95 2.02 2.62V22h-1.39v-3.97c0-1.15-.33-1.6-1.1-1.6-.61 0-1.03.31-1.61.89V22zm10.25.17c-1.8 0-3.22-1.29-3.22-3.46 0-2.15 1.48-3.48 3.01-3.48 1.74 0 2.7 1.26 2.7 3.13q0 .44-.07.71h-4.28c.1 1.26.9 2 2.04 2 .59 0 1.08-.17 1.57-.49l.48.9a4 4 0 0 1-2.23.69m-1.89-4.06h3.17c0-1.14-.5-1.79-1.46-1.79-.83 0-1.56.64-1.7 1.8m6.68 4.06c-.53 0-.92-.41-.92-.97 0-.58.4-.98.92-.98s.92.4.92.98c0 .56-.4.97-.92.97m2.82 2.5V15.4h1.13l.12.73h.03a3.3 3.3 0 0 1 2.03-.9c1.67 0 2.62 1.33 2.62 3.37 0 2.26-1.36 3.57-2.85 3.57a2.7 2.7 0 0 1-1.74-.75l.05 1.12v2.14zm2.82-3.65c.95 0 1.68-.86 1.68-2.4 0-1.38-.46-2.24-1.56-2.24q-.74.01-1.55.8v3.24c.52.44 1.02.6 1.43.6m7.02 1.15c-1.66 0-2.72-1.27-2.72-3.46 0-2.15 1.36-3.48 2.82-3.48.76 0 1.25.29 1.78.75l-.06-1.1v-2.43h1.4V22h-1.15l-.1-.73h-.04c-.5.5-1.19.9-1.93.9m.33-1.15q.8 0 1.49-.8V17a2 2 0 0 0-1.44-.62c-.92 0-1.67.9-1.67 2.3 0 1.5.59 2.34 1.62 2.34m5.17.98v-7.43c0-1.34.63-2.29 2.1-2.29.45 0 .87.1 1.17.22l-.28 1.05q-.37-.17-.73-.17-.87 0-.88 1.2V22zm-.9-5.5v-1.03l.97-.07h2.66v1.1z"/><path stroke="#fff" stroke-linecap="round" stroke-linejoin="round" d="M201.5 20.5v3.33a1.67 1.67 0 0 1-1.67 1.67h-11.66a1.67 1.67 0 0 1-1.67-1.67V20.5m3.33-4.17L194 20.5l4.17-4.17M194 20.5v-10"/></svg>
